symbolic/24x24/apps/guake.svg

<svg xmlns="http://www.w3.org/2000/svg" width="24" height="24" version="1">
 <path style="opacity:.2" d="m2 20v0.5c0 0.554 0.446 1 1 1h18c0.554 0 1-0.446 1-1v-0.5c0 0.554-0.446 1-1 1h-18c-0.554 0-1-0.446-1-1z"/>
 <rect style="fill:#74d159" width="20" height="18" x="2" y="3" rx="1" ry="1"/>
 <path style="opacity:.2;fill:#ffffff" d="m3 3c-0.554 0-1 0.446-1 1v0.5c0-0.554 0.446-1 1-1h18c0.554 0 1 0.446 1 1v-0.5c0-0.554-0.446-1-1-1z"/>
 <path style="opacity:.2" d="m6 5.5v1h-0.5c-0.831 0-1.5 0.669-1.5 1.5s0.669 1.5 1.5 1.5h0.5v1h-1.9082c0.206 0.582 0.754 1 1.4082 1h0.5v1h1v-1h0.5c0.831 0 1.5-0.669 1.5-1.5s-0.669-1.5-1.5-1.5h-0.5v-1h1.9082c-0.206-0.582-0.754-1-1.408-1h-0.5v-1h-1zm-0.5 2h0.5v1h-0.5c-0.277 0-0.5-0.223-0.5-0.5s0.223-0.5 0.5-0.5zm1.5 2h0.5c0.277 0 0.5 0.223 0.5 0.5s-0.2233 0.513-0.5 0.5h-0.5zm4 2v1h6v-1z"/>
 <path style="fill:#ffffff" d="m6 5v1h-0.5c-0.831 0-1.5 0.669-1.5 1.5s0.669 1.5 1.5 1.5h0.5v1h-1.9082c0.206 0.582 0.754 1 1.4082 1h0.5v1h1v-1h0.5c0.831 0 1.5-0.669 1.5-1.5s-0.669-1.5-1.5-1.5h-0.5v-1h1.9082c-0.206-0.582-0.754-1-1.408-1h-0.5v-1h-1zm-0.5 2h0.5v1h-0.5c-0.277 0-0.5-0.223-0.5-0.5s0.223-0.5 0.5-0.5zm1.5 2h0.5c0.277 0 0.5 0.223 0.5 0.5s-0.2233 0.513-0.5 0.5h-0.5zm4 2v1h6v-1z"/>
</svg>

<svg xmlns="http://www.w3.org/2000/svg" width="24" height="24" version="1"><path style="opacity:.2" d="M2 20v.5c0 .554.446 1 1 1h18c.554 0 1-.446 1-1V20c0 .554-.446 1-1 1H3c-.554 0-1-.446-1-1z"/><rect style="fill:#74d159" width="20" height="18" x="2" y="3" rx="1" ry="1"/><path style="opacity:.2;fill:#fff" d="M3 3c-.554 0-1 .446-1 1v.5c0-.554.446-1 1-1h18c.554 0 1 .446 1 1V4c0-.554-.446-1-1-1z"/><path style="opacity:.2" d="M6 5.5v1h-.5C4.669 6.5 4 7.169 4 8s.669 1.5 1.5 1.5H6v1H4.092c.206.582.754 1 1.408 1H6v1h1v-1h.5c.831 0 1.5-.669 1.5-1.5s-.669-1.5-1.5-1.5H7v-1h1.908c-.206-.582-.754-1-1.408-1H7v-1H6zm-.5 2H6v1h-.5a.499.499 0 1 1 0-1zm1.5 2h.5c.277 0 .5.223.5.5s-.223.513-.5.5H7zm4 2v1h6v-1z"/><path style="fill:#fff" d="M6 5v1h-.5C4.669 6 4 6.669 4 7.5S4.669 9 5.5 9H6v1H4.092c.206.582.754 1 1.408 1H6v1h1v-1h.5c.831 0 1.5-.669 1.5-1.5S8.331 8 7.5 8H7V7h1.908c-.206-.582-.754-1-1.408-1H7V5H6zm-.5 2H6v1h-.5a.499.499 0 1 1 0-1zM7 9h.5c.277 0 .5.223.5.5s-.223.513-.5.5H7zm4 2v1h6v-1z"/></svg>
